X: 22608
T: Lady St. John
R: waltz
M: 3/4
K: Gmajor
D/E/F|G3 A GF|G2 D2 G2|B3 c BA|B2 G2 d2|e3 f ed|
e2 B2 fg|e4 d2|d4 d/e/f|g3 f e2|d2 B2 d2|A2 B2 G2|
d2 c2 B2|A3 B AB|E2 F2 G2|A4 G2|G4 d/e/f|
gf ed ef|e4 e2|fe dB de|d4 d2|ed BA GA|
B4 D2|E2 G2 A2|A4 G2|Bc d2 G2|B4 A2|BA Bd ef|
e4 g2|d2 cB AG|Bc d2 G2|AB D2 GF|G4||

